modules/hawcons-stroke/icons/icon-71-document-cloud.svg

<?xml version="1.0" encoding="UTF-8" standalone="no"?>
<svg width="32px" height="32px" viewBox="0 0 32 32" version="1.1" xmlns="http://www.w3.org/2000/svg" xmlns:xlink="http://www.w3.org/1999/xlink" xmlns:sketch="http://www.bohemiancoding.com/sketch/ns">
    <!-- Generator: Sketch 3.0.3 (7891) - http://www.bohemiancoding.com/sketch -->
    <title>icon 71 document cloud</title>
    <desc>Created with Sketch.</desc>
    <defs></defs>
    <g id="Page-1" stroke="none" stroke-width="1" fill="none" fill-rule="evenodd" sketch:type="MSPage">
        <g id="icon-71-document-cloud" sketch:type="MSArtboardGroup" fill="#929292">
            <path d="M16.0354444,21 L16.0058587,21 C14.8980535,21 14,21.8877296 14,23 C14,24.1045695 14.8970601,25 16.0058587,25 L25.9941413,25 C27.1019465,25 28,24.1122704 28,23 C28,21.8954305 27.1029399,21 25.9941413,21 L25.9499909,21 L25.9499909,21 C25.7183558,19.8588798 24.709479,19 23.5,19 C23.227367,19 22.9649269,19.0436408 22.7192843,19.1243177 C22.1848162,17.875211 20.9446164,17 19.5,17 C17.5670033,17 16,18.5670033 16,20.5 C16,20.6697607 16.012086,20.8366985 16.0354444,21 L16.0354444,21 Z M23,17.6713327 L23,10.5 L23,10 L17,3 L16.5,3 L16.5,3 L6.00276013,3 C4.89666625,3 4,3.89833832 4,5.00732994 L4,27.9926701 C4,29.1012878 4.89092539,30 5.99742191,30 L21.0025781,30 C22.1057238,30 23,29.1017876 23,28.0092049 L23,26 L23,26 L25.9905224,26 C27.652611,26 29,24.6534829 29,23 C29,21.5860543 28.0265617,20.4005753 26.7014494,20.0833647 C26.1575946,18.8561232 24.9287765,18 23.5,18 C23.4153244,18 23.331351,18.0030069 23.248181,18.0089199 C23.1706233,17.8924563 23.0877822,17.7798131 23,17.6713327 L23,17.6713327 L23,17.6713327 Z M22,16.7577744 L22,11 L17.9979131,11 C16.8944962,11 16,10.1134452 16,8.99408095 L16,4 L5.9955775,4 C5.44573523,4 5,4.45526288 5,4.99545703 L5,28.004543 C5,28.5543187 5.45470893,29 5.9999602,29 L21.0000398,29 C21.5523026,29 22,28.5550537 22,28.0066023 L22,26 L22,26 L16.0094776,26 C14.3366311,26 13,24.6568542 13,23 C13,21.6943341 13.8401517,20.5800739 15.0119834,20.1690695 C15.1813969,17.838306 17.1260186,16 19.5,16 C20.4250733,16 21.284951,16.2791358 22,16.7577744 L22,16.7577744 L22,16.7577744 Z M17,4.5 L17,8.99121523 C17,9.54835167 17.4506511,10 17.9967388,10 L21.6999512,10 L17,4.5 L17,4.5 Z" id="document-cloud" sketch:type="MSShapeGroup"></path>
        </g>
    </g>
</svg>

<svg width="32" height="32" xmlns="http://www.w3.org/2000/svg"><path d="M16.035 21h-.03A1.998 1.998 0 0 0 14 23c0 1.105.897 2 2.006 2h9.988A1.998 1.998 0 0 0 28 23c0-1.105-.897-2-2.006-2h-.044a2.5 2.5 0 0 0-3.23-1.876A3.5 3.5 0 0 0 16.034 21zM23 17.671V10l-6-7H6.003A2.005 2.005 0 0 0 4 5.007v22.986A2 2 0 0 0 5.997 30h15.006A1.999 1.999 0 0 0 23 28.01V26h2.99A3.007 3.007 0 0 0 29 23c0-1.414-.973-2.6-2.299-2.917a3.5 3.5 0 0 0-3.453-2.074A4.516 4.516 0 0 0 23 17.67zm-1-.913V11h-4.002A1.995 1.995 0 0 1 16 8.994V4H5.996C5.446 4 5 4.455 5 4.995v23.01c0 .55.455.995 1 .995h15c.552 0 1-.445 1-.993V26h-5.99a2.998 2.998 0 0 1-.998-5.83A4.5 4.5 0 0 1 22 16.757zM17 4.5v4.491c0 .557.45 1.009.997 1.009H21.7L17 4.5z" fill="#929292" fill-rule="evenodd"/></svg>
